!!!COM: Schiørring, Niels
!!!CDT: 1743-1798
!!!OPR@@DA: Choral-Bog
!!!ONM: 46
!!!OTL@@DA: Jeg veed et evigt Himmerig
**kern	**fb	**kern	**kern	**kern	**kern	**kern	**kern	**kern
*part6	*part6	*part6	*part5	*part5	*part4	*part3	*part2	*part1
*staff8	*	*staff7	*staff6	*staff5	*staff4	*staff3	*staff2	*staff1
*clefF4	*	*clefC1	*clefF4	*clefC1	*clefF4	*clefC4	*clefC3	*clefC1
*	*	*	*	*	*	*Trd0c0	*	*
*k[f#]	*	*k[f#]	*k[f#]	*k[f#]	*k[f#]	*k[f#]	*k[f#]	*k[f#]
*G:	*	*G:	*G:	*G:	*G:	*G:	*G:	*G:
*M4/4	*	*M4/4	*M4/4	*M4/4	*M4/4	*M4/4	*M4/4	*M4/4
*met(c)	*	*met(c)	*met(c)	*met(c)	*met(c)	*met(c)	*met(c)	*met(c)
*	*	*	*^	*^	*	*	*	*
2E	.	2b	2B	2E	2b	2g	2E	2ee	2g	2b
=1	=1	=1	=1	=1	=1	=1	=1	=1	=1	=1
2G	6	2b	2B	2G	2b	2e	2G	2b	2e	2b
2D#X	5	2a	2B	2D#X	2a	2f#	2D#X	2b	2f#	2a
=2	=2	=2	=2	=2	=2	=2	=2	=2	=2	=2
2E	.	2g	2B	2E	2g	2e	2E	2b	2e	2g
2F#	6	2ddni	2A	2F#	2ddni	2a	2F#	2a	2a	2dd
=3	=3	=3	=3	=3	=3	=3	=3	=3	=3	=3
2G	.	2dd	2G	2G	2dd	2b	2G	2b	2g	2dd
2C	.	(4ee	2G	2C	(4ee	4g	2C	(4cc	2g	(4ee
.	.	4cc)	.	.	4cc)	4e	.	4ee)	.	4cc)
=4	=4	=4	=4	=4	=4	=4	=4	=4	=4	=4
2GG	.	2b	2G	2GG	2b	2d	2GG	2dd	2g	2b
2G	.	2dd	2B	2G	2dd	2d	2G	2b	2g	2dd
=5	=5	=5	=5	=5	=5	=5	=5	=5	=5	=5
2F#	6	2dd	2A	2F#	2dd	2d	2F#	2dd	2a	2dd
2G	.	2b	2B	2G	2b	2d	2G	2dd	2g	2b
=6	=6	=6	=6	=6	=6	=6	=6	=6	=6	=6
2D#X	6	2b	1B	2D#X	2b	2f#	2D#X	2b	2f#	2b
2E	.	2g	.	2E	2g	2e	2E	2b	2e	2g
=7	=7	=7	=7	=7	=7	=7	=7	=7	=7	=7
1C	6	1a	1c	1C	1a	1e	1C	1ee	1e	1a
=8	=8	=8	=8	=8	=8	=8	=8	=8	=8	=8
2BB	#	2b	2F#	2BB	2b	2d#X	2BB	2dd#X	2f#	2b
2E	.	2g	2E	2E	2g	2B	2E	2b	2e	2g
=9	=9	=9	=9	=9	=9	=9	=9	=9	=9	=9
2D	.	2a	2F#	2Dni	2a	1dni	2D	2ddni	2f#	2a
2G	.	2b	2G	2G	2b	.	2G	2dd	2g	2b
=10	=10	=10	=10	=10	=10	=10	=10	=10	=10	=10
2D#X	6	2b	2F#	2D#X	2b	1B	2D#X	2b	2f#	2b
2BB	7 #	2a	2D#	2BB	2a	.	2BB	2b	2d#X	2a
=11	=11	=11	=11	=11	=11	=11	=11	=11	=11	=11
2E	.	2g	[2E	2E	2g	1B	2E	2b	2e	2g
2BB	4	2f#	4E]	2BB	2f#	.	2BB	2b	(4e	2f#
=12	=12	=12	=12	=12	=12	=12	=12	=12	=12	=12
2E	#	2e	2G	2E	2e	2B	2E	2g	2e	2e
2G	.	2d	2B	2G	2dni	2B	2G	2b	2B	2d
=13	=13	=13	=13	=13	=13	=13	=13	=13	=13	=13
2B	6	2g	2B	2B	2g	1d	2B	2b	2d	2g
2F#	6	2a	2A	2F#	2a	.	2F#	2a	2d	2a
=14	=14	=14	=14	=14	=14	=14	=14	=14	=14	=14
2G	5	2b	2G	2G	2b	4d	2G	2g	(4d	2b
2D#X	5	2a	2B	2D#X	2a	2f#	2D#X	2b	2f#	2a
=15	=15	=15	=15	=15	=15	=15	=15	=15	=15	=15
2E	.	(2g	2B	2E	2g	2.e	(2E	(2b	(2.e	(2g
2BB	4	2f#)	2A	2BB	2f#	.	2BB)	2a)	.	2f#)
=16	=16	=16	=16	=16	=16	=16	=16	=16	=16	=16
2E	#	2e	2ryy	2EE	2G	2B	2E	2g	2e	2e
*	*	*	*v	*v	*	*	*	*	*	*
*	*	*	*	*v	*v	*	*	*	*
==	==	==	==	==	==	==	==	==
*-	*-	*-	*-	*-	*-	*-	*-	*-
!!!system-decoration: {(s1,s2,s3,s4)}{(s5,s6)}{(s7,s8)}
!!!RDF**kern: i = editorial accidental
!!!AGN: chorale
!!!EED: Derek Remeš
!!!EED2: Victor Phan
!!!END: 2023/11/28
!!!ENC: Wolfgang Drescher
!!!EEV: 2023/11/28
!!!title: @{ONM}. @{OTL}